src/assets/icons/actions/save.svg

<?xml version="1.0" encoding="UTF-8"?>
<svg width="24px" height="24px" viewBox="0 0 24 24" version="1.1" xmlns="http://www.w3.org/2000/svg" xmlns:xlink="http://www.w3.org/1999/xlink">
    <title>icon/action-vignette-télécharger</title>
    <g id="icon/action-vignette-télécharger" stroke="none" stroke-width="1" fill="none" fill-rule="evenodd">
        <path d="M19.2490917,14.8608731 C19.4553119,14.8608731 19.6473864,14.9466699 19.7827575,15.082851 C19.9142072,15.2237474 20,15.4150119 20,15.6220381 L20,19.1632908 C20,19.2341319 19.9897031,19.2994639 19.9747474,19.3600725 C19.9039063,19.7079911 19.5969255,19.9693027 19.2340554,19.9693027 L4.76116092,19.9693027 C4.37310261,19.9693027 4.05117824,19.6717605 4.01023242,19.2939386 C4,19.2482856 4,19.2081418 4,19.1577656 L4,15.6165169 C4,15.1985552 4.34239728,14.8608731 4.75564371,14.8608731 C4.96186392,14.8608731 5.15393848,14.9466699 5.28930953,15.082851 C5.42548257,15.2190241 5.51128743,15.4102967 5.51128743,15.6165169 L5.51128743,18.4524981 L18.4934479,18.4524981 L18.4934479,15.6165169 C18.4934479,15.1985552 18.8358452,14.8608731 19.2490917,14.8608731 Z M12.0104803,4 C12.2521251,4 12.474103,4.1007525 12.6354682,4.25659645 C12.7968293,4.41795762 12.8920646,4.63441831 12.8920646,4.88158433 L12.8920646,13.0574478 L15.1235309,10.8259815 C15.4659282,10.4835843 16.0255881,10.4835843 16.3727006,10.8259815 C16.7001462,11.1739001 16.7001462,11.732754 16.3577449,12.0751513 L12.6450034,15.7880822 C12.6402801,15.7983147 12.6300477,15.8030379 12.6245385,15.8085471 C12.4883655,15.9447201 12.3120446,16.030525 12.1357277,16.0557131 L12.1131959,16.0580747 L12.1131959,16.0580747 L12.0900747,16.0604364 C12.0601633,16.0651597 12.0294661,16.0651597 11.9995547,16.0651597 L11.9137579,16.0604364 C11.8988022,16.0604364 11.8838465,16.0557131 11.8681049,16.0557131 C11.6870648,16.030525 11.5154712,15.9447282 11.3792941,15.8085471 C11.3745708,15.8038238 11.3643384,15.7935914 11.3588293,15.7880822 L7.6458983,12.0751513 C7.47430471,11.9035577 7.38930185,11.6768565 7.38930185,11.4501634 C7.38930185,11.2234703 7.47509864,10.9967772 7.6458983,10.8251755 C7.98829558,10.4827783 8.54795554,10.4827783 8.89506804,10.8251755 L11.1265343,13.0566418 L11.1288959,4.88158433 C11.1288959,4.39829476 11.5271907,4 12.0104803,4 Z" id="Combined-Shape" fill="#255033"></path>
    </g>
</svg>

<?xml version="1.0" encoding="utf-8"?>
<!-- Generator: Adobe Illustrator 25.0.0, SVG Export Plug-In . SVG Version: 6.00 Build 0)  -->
<svg version="1.1" id="Calque_1" xmlns="http://www.w3.org/2000/svg" xmlns:xlink="http://www.w3.org/1999/xlink" x="0px" y="0px"
	 viewBox="0 0 24 24" style="enable-background:new 0 0 24 24;" xml:space="preserve">
<style type="text/css">
	.st0{fill-rule:evenodd;clip-rule:evenodd;fill:#062172;}
</style>
<g id="icon_x2F_action-vignette-télécharger">
	<path id="Combined-Shape" class="st0" d="M19.2,14.9c0.2,0,0.4,0.1,0.5,0.2c0.1,0.1,0.2,0.3,0.2,0.5v3.5c0,0.1,0,0.1,0,0.2
		c-0.1,0.3-0.4,0.6-0.7,0.6H4.8c-0.4,0-0.7-0.3-0.8-0.7c0,0,0-0.1,0-0.1v-3.5c0-0.4,0.3-0.8,0.8-0.8c0.2,0,0.4,0.1,0.5,0.2
		c0.1,0.1,0.2,0.3,0.2,0.5v2.8h13v-2.8C18.5,15.2,18.8,14.9,19.2,14.9z M12,4c0.2,0,0.5,0.1,0.6,0.3c0.2,0.2,0.3,0.4,0.3,0.6v8.2
		l2.2-2.2c0.3-0.3,0.9-0.3,1.2,0c0.3,0.3,0.3,0.9,0,1.2l-3.7,3.7c0,0,0,0,0,0c-0.1,0.1-0.3,0.2-0.5,0.2l0,0l0,0l0,0c0,0-0.1,0-0.1,0
		l-0.1,0c0,0,0,0,0,0c-0.2,0-0.4-0.1-0.5-0.2c0,0,0,0,0,0l-3.7-3.7c-0.2-0.2-0.3-0.4-0.3-0.6c0-0.2,0.1-0.5,0.3-0.6
		c0.3-0.3,0.9-0.3,1.2,0l2.2,2.2l0-8.2C11.1,4.4,11.5,4,12,4z"/>
</g>
</svg>
